contents/images/inclusion.svg

<svg height="72" viewBox="0 0 72 72" width="72" xmlns="http://www.w3.org/2000/svg"><g fill="none" fill-rule="evenodd"><rect fill="#79e2f2" height="72" rx="36" width="72"/><g transform="translate(14 14)"><path d="m28 28c-.29688 0-.58203-.13232-.77441-.3667l-9-11c-.18652-.22852-.2627-.52832-.20801-.81836.05469-.29053.23438-.5415.49219-.68652l19.29003-10.85498c.38867-.22021.87988-.15283 1.19727.16455 5.90723 5.90771 5.90723 15.52051 0 21.42822-.14453.14453-.33008.24121-.53125.27734l-10.29004 1.84082c-.05859.01075-.11719.01563-.17578.01563zm10.29004-2.84082h.00977z" fill="#e6fcff"/><path d="m39.56934 25.47363c-.00391-.00391-.00781-.00781-.01172-.01172l-13.67969-13.99414-3.07031-9.38184c-.08496-.25879-.27148-.47168-.5166-.58984-5.78907-2.78759-12.73926-1.60742-17.28809 2.9419-5.15137 5.15137-5.91016 13.24854-1.80469 19.25342.03223.04785.06934.09326.11035.13477l15.86133 16.206539 2.8457 2.84521c.72364.72363 1.68555 1.122071 2.70899 1.122071 1.02246 0 1.98438-.39844 2.70801-1.12207.79102-.7915 1.16309-1.84619 1.11523-2.88477 1.08203.04932 2.12207-.35205 2.88672-1.11816.79685-.79631 1.16938-1.8539 1.11816-2.88672 1.03906.05225 2.09277-.32471 2.88475-1.11572.79053-.79052 1.16869-1.8403 1.11818-2.89258 1.05469.04248 2.11719-.34326 2.93945-1.16504 1.47755-1.47705 1.51075-3.82324.07423-5.34131z" fill="#6553c0"/><g fill="#e6fcff"><path d="m22.03558 33.16467h-.00006c-1.10529-1.10535-2.8974-1.10535-4.00275 0 1.10535-1.10535 1.10535-2.89746 0-4.00281s-2.89746-1.10535-4.00281 0c1.10535-1.10535 1.10535-2.89746 0-4.00281s-2.89746-1.10535-4.00281 0c1.10535-1.10535 1.10535-2.89746 0-4.00281s-2.89746-1.10535-4.00281 0l-3.00214 3.00214c-1.10535 1.10535-1.10535 2.89746 0 4.00281s2.89746 1.10535 4.00281 0c-1.10535 1.10535-1.10535 2.89746 0 4.00281s2.89746 1.10535 4.00281 0c-1.10535 1.10535-1.10535 2.89746 0 4.002809 1.10535 1.10535 2.89746 1.10535 4.00281 0-1.10535 1.10535-1.10535 2.89746 0 4.00275v.00006c1.10535 1.10535 2.89746 1.10535 4.00281 0l3.00214-3.00214c1.10535-1.105349 1.10535-2.897459 0-4.002809z"/><path d="m38.99707 4.43799c-5.9082-5.90771-15.52051-5.90625-21.42871 0l-10.00684 10.00683c-.2002.19971-.30566.47461-.29199.75684.01465.28223.14746.54541.36621.72412.10645.0874 1.46875 1.16113 3.79688 1.16113 2.10449-.00049 4.99805-.87842 8.46289-4.15674 2.28223 1.10498 9.75977 4.17529 14.4043-.46826.04004-.03955.07617-.08203.1084-.12793l4.69727-6.60986c.28222-.39746.23632-.94141-.10841-1.28613z"/></g></g></g></svg>

<?xml version="1.0" encoding="UTF-8"?>
<svg width="72px" height="72px" viewBox="0 0 72 72" version="1.1" xmlns="http://www.w3.org/2000/svg" xmlns:xlink="http://www.w3.org/1999/xlink">
    <!-- Generator: Sketch 47.1 (45422) - http://www.bohemiancoding.com/sketch -->
    <title>inclusion</title>
    <desc>Created with Sketch.</desc>
    <defs></defs>
    <g id="Symbols" stroke="none" stroke-width="1" fill="none" fill-rule="evenodd">
        <g id="inclusion">
            <rect id="Rectangle-3" fill="#79E2F2" x="0" y="0" width="72" height="72" rx="36"></rect>
            <g id="Page-1" transform="translate(14.000000, 14.000000)">
                <path d="M28,28 C27.70312,28 27.41797,27.86768 27.22559,27.6333 L18.22559,16.6333 C18.03907,16.40478 17.96289,16.10498 18.01758,15.81494 C18.07227,15.52441 18.25196,15.27344 18.50977,15.12842 L37.7998,4.27344 C38.18847,4.05323 38.67968,4.12061 38.99707,4.43799 C44.9043,10.3457 44.9043,19.9585 38.99707,25.86621 C38.85254,26.01074 38.66699,26.10742 38.46582,26.14355 L28.17578,27.98437 C28.11719,27.99512 28.05859,28 28,28 Z M38.29004,25.15918 L38.29981,25.15918 L38.29004,25.15918 Z" id="Fill-1" fill="#E6FCFF"></path>
                <path d="M39.56934,25.47363 C39.56543,25.46972 39.56153,25.46582 39.55762,25.46191 L25.87793,11.46777 L22.80762,2.08593 C22.72266,1.82714 22.53614,1.61425 22.29102,1.49609 C16.50195,-1.2915 9.55176,-0.11133 5.00293,4.43799 C-0.14844,9.58936 -0.90723,17.68653 3.19824,23.69141 C3.23047,23.73926 3.26758,23.78467 3.30859,23.82618 L19.16992,40.032719 L22.01562,42.877929 C22.73926,43.601559 23.70117,44 24.72461,44 C25.74707,44 26.70899,43.60156 27.43262,42.87793 C28.22364,42.08643 28.59571,41.03174 28.54785,39.99316 C29.62988,40.04248 30.66992,39.64111 31.43457,38.875 C32.23142,38.07869 32.60395,37.0211 32.55273,35.98828 C33.59179,36.04053 34.6455,35.66357 35.43748,34.87256 C36.22801,34.08204 36.60617,33.03226 36.55566,31.97998 C37.61035,32.02246 38.67285,31.63672 39.49511,30.81494 C40.97266,29.33789 41.00586,26.9917 39.56934,25.47363 Z" id="Fill-3" fill="#6553C0"></path>
                <path d="M22.03558,33.16467 L22.03552,33.16467 C20.93023,32.05932 19.13812,32.05932 18.03277,33.16467 C19.13812,32.05932 19.13812,30.26721 18.03277,29.16186 C16.92742,28.05651 15.13531,28.05651 14.02996,29.16186 C15.13531,28.05651 15.13531,26.2644 14.02996,25.15905 C12.92461,24.0537 11.1325,24.0537 10.02715,25.15905 C11.1325,24.0537 11.1325,22.26159 10.02715,21.15624 C8.9218,20.05089 7.12969,20.05089 6.02434,21.15624 L3.0222,24.15838 C1.91685,25.26373 1.91685,27.05584 3.0222,28.16119 C4.12755,29.26654 5.91966,29.26654 7.02501,28.16119 C5.91966,29.26654 5.91966,31.05865 7.02501,32.164 C8.13036,33.26935 9.92247,33.26935 11.02782,32.164 C9.92247,33.26935 9.92247,35.06146 11.02782,36.166809 C12.13317,37.272159 13.92528,37.272159 15.03063,36.166809 C13.92528,37.272159 13.92528,39.064269 15.03063,40.169559 L15.03063,40.169619 C16.13598,41.274969 17.92809,41.274969 19.03344,40.169619 L22.03558,37.167479 C23.14093,36.06213 23.14093,34.27002 22.03558,33.16467 Z" id="Fill-4" fill="#E6FCFF"></path>
                <path d="M38.99707,4.43799 C33.08887,-1.46972 23.47656,-1.46826 17.56836,4.43799 L7.56152,14.44482 C7.36132,14.64453 7.25586,14.91943 7.26953,15.20166 C7.28418,15.48389 7.41699,15.74707 7.63574,15.92578 C7.74219,16.01318 9.10449,17.08691 11.43262,17.08691 C13.53711,17.08642 16.43067,16.20849 19.89551,12.93017 C22.17774,14.03515 29.65528,17.10546 34.29981,12.46191 C34.33985,12.42236 34.37598,12.37988 34.40821,12.33398 L39.10548,5.72412 C39.3877,5.32666 39.3418,4.78271 38.99707,4.43799 Z" id="Fill-5" fill="#E6FCFF"></path>
            </g>
        </g>
    </g>
</svg>
